X: 121
T:Lass In The North Country,A. HA.120
M:3/4
L:1/8
Q:180
S:Henry Atkinson's original MS,Hartburn,N'umberland,1694.
O:England
A:Hartburn,Northumberland
N:Works very well with a strong first beat in the bar. cf Kingsley
N:MS,1795 (USA).. CGP.
H:1/8
Z:vmp.Chris Partington.Jan.2004
K:G
"perhaps 9/4"BAG2D2|G4B2|AGABE2|BAG2D2|G4A2|(Bc)(dB)G2:|!
efg4|e2(fe)(dB)|d2e2f2|efg4|e2(fe)(dB)|!
d2(ef)d2|efg4|e2(fe)(dB)|d2e2f2|efg2G2|!
G4B2|AGABE2|BAG2D2|G4A2|(Bc)(dB)G2|]
